packages/vapor/resources/icons/svg/status-org_read_only.svg

<svg enable-background="new 0 0 528 528" height="528" viewBox="0 0 528 528" width="528" xmlns="http://www.w3.org/2000/svg"><path d="m264 0c-145.803 0-264 118.197-264 264s118.197 264 264 264 264-118.197 264-264-118.197-264-264-264zm.252 484c-121.642 0-220.252-98.609-220.252-220.252 0-121.642 98.61-220.251 220.252-220.251s220.252 98.61 220.252 220.251-98.61 220.252-220.252 220.252z"/><path d="m264 132c-148.715 0-198 154-198 154s63.583 110 198 110c128.477 0 198-110 198-110s-47.298-154-198-154zm-.359 219.58c-48.569 0-87.94-39.372-87.94-87.939 0-48.57 39.372-87.941 87.94-87.941 48.567 0 87.939 39.372 87.939 87.941 0 48.567-39.372 87.939-87.939 87.939z"/><path d="m262.393 209c-4.956 0-9.754.667-14.322 1.896 9.468 4.361 16.043 13.927 16.043 25.035 0 15.219-12.337 27.557-27.557 27.557-11.917 0-22.065-7.565-25.909-18.154-2.103 5.829-3.255 12.113-3.255 18.667 0 30.376 24.625 55 55 55 30.376 0 55-24.624 55-55s-24.623-55.001-55-55.001z"/></svg>

<?xml version="1.0" encoding="utf-8"?>
<!-- Generator: Adobe Illustrator 16.0.4, SVG Export Plug-In . SVG Version: 6.00 Build 0)  -->
<!DOCTYPE svg PUBLIC "-//W3C//DTD SVG 1.1//EN" "http://www.w3.org/Graphics/SVG/1.1/DTD/svg11.dtd">
<svg version="1.1" id="Layer_1" xmlns="http://www.w3.org/2000/svg" xmlns:xlink="http://www.w3.org/1999/xlink" x="0px" y="0px"
	 width="528px" height="528px" viewBox="0 0 528 528" enable-background="new 0 0 528 528" xml:space="preserve">
<g display="none">
	<line display="inline" fill="none" stroke="#B35047" x1="0" y1="22" x2="528" y2="22"/>
	<line display="inline" fill="none" stroke="#B35047" x1="0" y1="44" x2="528" y2="44"/>
	<line display="inline" fill="none" stroke="#B35047" x1="0" y1="66" x2="528" y2="66"/>
	<line display="inline" fill="none" stroke="#B35047" x1="0" y1="88" x2="528" y2="88"/>
	<line display="inline" fill="none" stroke="#B35047" x1="0" y1="110" x2="528" y2="110"/>
	<line display="inline" fill="none" stroke="#B35047" x1="0" y1="132" x2="528" y2="132"/>
	<line display="inline" fill="none" stroke="#B35047" x1="0" y1="374" x2="528" y2="374"/>
	<line display="inline" fill="none" stroke="#B35047" x1="0" y1="396" x2="528" y2="396"/>
	<line display="inline" fill="none" stroke="#B35047" x1="0" y1="418" x2="528" y2="418"/>
	<line display="inline" fill="none" stroke="#B35047" x1="0" y1="440" x2="528" y2="440"/>
	<line display="inline" fill="none" stroke="#B35047" x1="0" y1="462" x2="528" y2="462"/>
	<line display="inline" fill="none" stroke="#B35047" x1="0" y1="484" x2="528" y2="484"/>
	<line display="inline" fill="none" stroke="#B35047" x1="0" y1="506" x2="528" y2="506"/>
	<line display="inline" fill="none" stroke="#B35047" x1="22" y1="0" x2="22" y2="528"/>
	<line display="inline" fill="none" stroke="#B35047" x1="44" y1="0" x2="44" y2="528"/>
	<line display="inline" fill="none" stroke="#B35047" x1="66" y1="0" x2="66" y2="528"/>
	<line display="inline" fill="none" stroke="#B35047" x1="88" y1="0" x2="88" y2="528"/>
	<line display="inline" fill="none" stroke="#B35047" x1="110" y1="0" x2="110" y2="528"/>
	<line display="inline" fill="none" stroke="#B35047" x1="352" y1="0" x2="352" y2="528"/>
	<line display="inline" fill="none" stroke="#B35047" x1="374" y1="0" x2="374" y2="528"/>
	<line display="inline" fill="none" stroke="#B35047" x1="396" y1="0" x2="396" y2="528"/>
	<line display="inline" fill="none" stroke="#B35047" x1="418" y1="0" x2="418" y2="528"/>
	<line display="inline" fill="none" stroke="#B35047" x1="440" y1="0" x2="440" y2="528"/>
	<line display="inline" fill="none" stroke="#B35047" x1="462" y1="0" x2="462" y2="528"/>
	<line display="inline" fill="none" stroke="#B35047" x1="484" y1="0" x2="484" y2="528"/>
	<line display="inline" fill="none" stroke="#B35047" x1="506" y1="0" x2="506" y2="528"/>
	<g display="inline">
		<g>
			<line fill="none" stroke="#B35047" x1="0" y1="528" x2="528" y2="528"/>
			<line fill="none" stroke="#B35047" x1="0" y1="0" x2="0" y2="528"/>
		</g>
		<g>
			<line fill="none" stroke="#B35047" x1="0" y1="0" x2="528" y2="0"/>
			<line fill="none" stroke="#B35047" x1="528" y1="0" x2="528" y2="528"/>
		</g>
	</g>
	<line display="inline" fill="none" stroke="#B35047" x1="330" y1="0" x2="330" y2="528"/>
	<line display="inline" fill="none" stroke="#B35047" x1="308" y1="0" x2="308" y2="528"/>
	<line display="inline" fill="none" stroke="#B35047" x1="286" y1="0" x2="286" y2="528"/>
	<line display="inline" fill="none" stroke="#B35047" x1="264" y1="0" x2="264" y2="528"/>
	<line display="inline" fill="none" stroke="#B35047" x1="198" y1="0" x2="198" y2="528"/>
	<line display="inline" fill="none" stroke="#B35047" x1="176" y1="0" x2="176" y2="528"/>
	<line display="inline" fill="none" stroke="#B35047" x1="154" y1="0" x2="154" y2="528"/>
	<line display="inline" fill="none" stroke="#B35047" x1="132" y1="0" x2="132" y2="528"/>
	<line display="inline" fill="none" stroke="#B35047" x1="242" y1="0" x2="242" y2="528"/>
	<line display="inline" fill="none" stroke="#B35047" x1="220" y1="0" x2="220" y2="528"/>
	<line display="inline" fill="none" stroke="#B35047" x1="0" y1="154" x2="528" y2="154"/>
	<line display="inline" fill="none" stroke="#B35047" x1="0" y1="176" x2="528" y2="176"/>
	<line display="inline" fill="none" stroke="#B35047" x1="0" y1="198" x2="528" y2="198"/>
	<line display="inline" fill="none" stroke="#B35047" x1="0" y1="220" x2="528" y2="220"/>
	<line display="inline" fill="none" stroke="#B35047" x1="0" y1="242" x2="528" y2="242"/>
	<line display="inline" fill="none" stroke="#B35047" x1="0" y1="264" x2="528" y2="264"/>
	<line display="inline" fill="none" stroke="#B35047" x1="0" y1="286" x2="528" y2="286"/>
	<line display="inline" fill="none" stroke="#B35047" x1="0" y1="308" x2="528" y2="308"/>
	<line display="inline" fill="none" stroke="#B35047" x1="0" y1="330" x2="528" y2="330"/>
	<line display="inline" fill="none" stroke="#B35047" x1="0" y1="352" x2="528" y2="352"/>
</g>
<g display="none">
	
		<line display="inline" opacity="0.3" fill="none" stroke="#CC3333" enable-background="new    " x1="0.001" y1="33" x2="528.001" y2="33"/>
	
		<line display="inline" opacity="0.3" fill="none" stroke="#CC3333" enable-background="new    " x1="0.001" y1="55" x2="528.001" y2="55"/>
	
		<line display="inline" opacity="0.3" fill="none" stroke="#CC3333" enable-background="new    " x1="0.001" y1="77" x2="528.001" y2="77"/>
	
		<line display="inline" opacity="0.3" fill="none" stroke="#CC3333" enable-background="new    " x1="0.001" y1="99" x2="528.001" y2="99"/>
	
		<line display="inline" opacity="0.3" fill="none" stroke="#CC3333" enable-background="new    " x1="0.001" y1="121" x2="528.001" y2="121"/>
	
		<line display="inline" opacity="0.3" fill="none" stroke="#CC3333" enable-background="new    " x1="0.001" y1="143" x2="528.001" y2="143"/>
	
		<line display="inline" opacity="0.3" fill="none" stroke="#CC3333" enable-background="new    " x1="0.001" y1="385" x2="528.001" y2="385"/>
	
		<line display="inline" opacity="0.3" fill="none" stroke="#CC3333" enable-background="new    " x1="0.001" y1="407" x2="528.001" y2="407"/>
	
		<line display="inline" opacity="0.3" fill="none" stroke="#CC3333" enable-background="new    " x1="0.001" y1="429" x2="528.001" y2="429"/>
	
		<line display="inline" opacity="0.3" fill="none" stroke="#CC3333" enable-background="new    " x1="0.001" y1="451" x2="528.001" y2="451"/>
	
		<line display="inline" opacity="0.3" fill="none" stroke="#CC3333" enable-background="new    " x1="0.001" y1="473" x2="528.001" y2="473"/>
	
		<line display="inline" opacity="0.3" fill="none" stroke="#CC3333" enable-background="new    " x1="0.001" y1="495" x2="528.001" y2="495"/>
	
		<line display="inline" opacity="0.3" fill="none" stroke="#CC3333" enable-background="new    " x1="0.001" y1="517" x2="528.001" y2="517"/>
	
		<line display="inline" opacity="0.3" fill="none" stroke="#CC3333" enable-background="new    " x1="0.001" y1="165" x2="528.001" y2="165"/>
	
		<line display="inline" opacity="0.3" fill="none" stroke="#CC3333" enable-background="new    " x1="0.001" y1="187" x2="528.001" y2="187"/>
	
		<line display="inline" opacity="0.3" fill="none" stroke="#CC3333" enable-background="new    " x1="0.001" y1="209" x2="528.001" y2="209"/>
	
		<line display="inline" opacity="0.3" fill="none" stroke="#CC3333" enable-background="new    " x1="0.001" y1="231" x2="528.001" y2="231"/>
	
		<line display="inline" opacity="0.3" fill="none" stroke="#CC3333" enable-background="new    " x1="0.001" y1="253" x2="528.001" y2="253"/>
	
		<line display="inline" opacity="0.3" fill="none" stroke="#CC3333" enable-background="new    " x1="0.001" y1="275" x2="528.001" y2="275"/>
	
		<line display="inline" opacity="0.3" fill="none" stroke="#CC3333" enable-background="new    " x1="0.001" y1="297" x2="528.001" y2="297"/>
	
		<line display="inline" opacity="0.3" fill="none" stroke="#CC3333" enable-background="new    " x1="0.001" y1="319" x2="528.001" y2="319"/>
	
		<line display="inline" opacity="0.3" fill="none" stroke="#CC3333" enable-background="new    " x1="0.001" y1="341" x2="528.001" y2="341"/>
	
		<line display="inline" opacity="0.3" fill="none" stroke="#CC3333" enable-background="new    " x1="0.001" y1="363" x2="528.001" y2="363"/>
	<g display="inline" opacity="0.3">
		<line fill="none" stroke="#CC3333" x1="77" y1="0" x2="77" y2="528"/>
		<line fill="none" stroke="#CC3333" x1="99" y1="0" x2="99" y2="528"/>
		<line fill="none" stroke="#CC3333" x1="121" y1="0" x2="121" y2="528"/>
		<line fill="none" stroke="#CC3333" x1="143" y1="0" x2="143" y2="528"/>
		<line fill="none" stroke="#CC3333" x1="165" y1="0" x2="165" y2="528"/>
		<line fill="none" stroke="#CC3333" x1="451" y1="0" x2="451" y2="528"/>
		<line fill="none" stroke="#CC3333" x1="473" y1="0" x2="473" y2="528"/>
		<line fill="none" stroke="#CC3333" x1="495" y1="0" x2="495" y2="528"/>
		<line fill="none" stroke="#CC3333" x1="517" y1="0" x2="517" y2="528"/>
		<line fill="none" stroke="#CC3333" x1="55" y1="0" x2="55" y2="528"/>
		<line fill="none" stroke="#CC3333" x1="385" y1="0" x2="385" y2="528"/>
		<line fill="none" stroke="#CC3333" x1="363" y1="0" x2="363" y2="528"/>
		<line fill="none" stroke="#CC3333" x1="341" y1="0" x2="341" y2="528"/>
		<line fill="none" stroke="#CC3333" x1="319" y1="0" x2="319" y2="528"/>
		<line fill="none" stroke="#CC3333" x1="33" y1="0" x2="33" y2="528"/>
		<line fill="none" stroke="#CC3333" x1="407" y1="0" x2="407" y2="528"/>
		<line fill="none" stroke="#CC3333" x1="297" y1="0" x2="297" y2="528"/>
		<line fill="none" stroke="#CC3333" x1="275" y1="0" x2="275" y2="528"/>
		<line fill="none" stroke="#CC3333" x1="253" y1="0" x2="253" y2="528"/>
		<line fill="none" stroke="#CC3333" x1="231" y1="0" x2="231" y2="528"/>
		<line fill="none" stroke="#CC3333" x1="209" y1="0" x2="209" y2="528"/>
		<line fill="none" stroke="#CC3333" x1="187" y1="0" x2="187" y2="528"/>
		<line fill="none" stroke="#CC3333" x1="429" y1="0" x2="429" y2="528"/>
		<line fill="none" stroke="#CC3333" x1="10.008" y1="0" x2="10.008" y2="528"/>
	</g>
	
		<line display="inline" opacity="0.3" fill="none" stroke="#CC3333" enable-background="new    " x1="0.001" y1="11" x2="528.001" y2="11"/>
</g>
<path d="M264,0C118.197,0,0,118.197,0,264s118.197,264,264,264c145.803,0,264-118.197,264-264S409.803,0,264,0z M264.252,484
	C142.61,484,44,385.391,44,263.748c0-121.642,98.61-220.251,220.252-220.251c121.642,0,220.252,98.61,220.252,220.251
	C484.504,385.389,385.894,484,264.252,484z"/>
<path d="M264,132C115.285,132,66,286,66,286s63.583,110,198,110c128.477,0,198-110,198-110S414.702,132,264,132z M263.641,351.58
	c-48.569,0-87.94-39.372-87.94-87.939c0-48.57,39.372-87.941,87.94-87.941c48.567,0,87.939,39.372,87.939,87.941
	C351.58,312.208,312.208,351.58,263.641,351.58z"/>
<path d="M262.393,209c-4.956,0-9.754,0.667-14.322,1.896c9.468,4.361,16.043,13.927,16.043,25.035
	c0,15.219-12.337,27.557-27.557,27.557c-11.917,0-22.065-7.565-25.909-18.154c-2.103,5.829-3.255,12.113-3.255,18.667
	c0,30.376,24.625,55,55,55c30.376,0,55-24.624,55-55S292.77,209,262.393,209z"/>
</svg>
